X:7106
T:The Morpeth Rant
O:england
C:
M:4/4
L:1/8
K:D
(3ABc|d2dA FD FA|BG Bd cA ce|df af gf ed|
cd ec Ag fe|dc dA FD FA|BG Bd cA ce|df af bg ec|
A2d2d2:|
|: (3efg|a2fd cd ef|gf ge dc BA|gf ga bg ed|
c2A2A2(dc)|BG Bd gf ed|cA ce ag fe|df af bg ec|
A2d2d2:|


